img/image/content/forwho-1.svg

<svg width="24" height="30" viewBox="0 0 24 30" fill="none" xmlns="http://www.w3.org/2000/svg">
<path d="M23.3601 6.07417L12.0848 0.066105C11.9175 -0.0231702 11.717 -0.0219173 11.551 0.0692375L0.587706 6.07731C0.407902 6.17598 0.296387 6.36455 0.296387 6.56973V14.4178C0.302965 20.8691 4.1252 26.7055 10.0362 29.2901L11.5579 29.9533C11.7001 30.0153 11.8621 30.0156 12.0046 29.9539L13.7193 29.2134C19.7399 26.6849 23.6568 20.7921 23.6574 14.2621V6.56973C23.6574 6.36236 23.543 6.17159 23.3601 6.07417ZM22.5347 14.2621C22.5334 20.3419 18.8857 25.8278 13.2798 28.1806L13.2761 28.1825L11.7828 28.8272L10.4854 28.2611C4.98318 25.8554 1.42501 20.4231 1.41875 14.4178V6.90208L11.8245 1.19912L22.5347 6.90616V14.2621Z" fill="white"/>
<path d="M7.68305 14.0538C7.48163 13.818 7.12735 13.7901 6.89147 13.9915C6.6556 14.1926 6.62772 14.5472 6.82914 14.7828L9.79432 18.2551C9.9923 18.4869 10.3391 18.5185 10.5752 18.3262L17.4811 12.7078C17.7216 12.5123 17.758 12.1587 17.5622 11.9181C17.3667 11.6779 17.0131 11.6412 16.7725 11.837L10.2921 17.1089L7.68305 14.0538Z" fill="white"/>
</svg>

<svg width="24" height="30" fill="none" xmlns="http://www.w3.org/2000/svg"><path d="M23.36 6.074 12.085.066a.56.56 0 0 0-.534.003L.588 6.077a.561.561 0 0 0-.292.493v7.848a16.25 16.25 0 0 0 9.74 14.872l1.522.663a.56.56 0 0 0 .447 0l1.714-.74a16.218 16.218 0 0 0 9.938-14.95V6.57a.562.562 0 0 0-.297-.496Zm-.825 8.188a15.098 15.098 0 0 1-9.255 13.919l-.004.002-1.493.644-1.298-.566A15.126 15.126 0 0 1 1.42 14.418V6.902L11.824 1.2l10.71 5.707v7.356Z" fill="#fff"/><path d="M7.683 14.054a.561.561 0 0 0-.854.729l2.965 3.472a.561.561 0 0 0 .781.071l6.906-5.618a.561.561 0 1 0-.709-.871l-6.48 5.272-2.609-3.055Z" fill="#fff"/></svg>
